svg/Mapbox-maki/playground-12.svg

<?xml version="1.0" encoding="UTF-8" standalone="no"?>
<!-- Created with Inkscape (http://www.inkscape.org/) -->

<svg
   xmlns:dc="http://purl.org/dc/elements/1.1/"
   xmlns:cc="http://creativecommons.org/ns#"
   xmlns:rdf="http://www.w3.org/1999/02/22-rdf-syntax-ns#"
   xmlns:svg="http://www.w3.org/2000/svg"
   xmlns="http://www.w3.org/2000/svg"
   xmlns:sodipodi="http://sodipodi.sourceforge.net/DTD/sodipodi-0.dtd"
   xmlns:inkscape="http://www.inkscape.org/namespaces/inkscape"
   width="12"
   height="12"
   id="svg4764"
   version="1.1"
   inkscape:version="0.48.2 r9819"
   sodipodi:docname="playground-12.svg">
  <defs
     id="defs4766" />
  <sodipodi:namedview
     id="base"
     pagecolor="#ffffff"
     bordercolor="#666666"
     borderopacity="1.0"
     inkscape:pageopacity="0.0"
     inkscape:pageshadow="2"
     inkscape:zoom="1"
     inkscape:cx="6.0586521"
     inkscape:cy="7.5222984"
     inkscape:document-units="px"
     inkscape:current-layer="layer1"
     showgrid="false"
     showguides="false"
     inkscape:guide-bbox="true"
     inkscape:window-width="1425"
     inkscape:window-height="880"
     inkscape:window-x="244"
     inkscape:window-y="43"
     inkscape:window-maximized="0"
     inkscape:snap-grids="true"
     inkscape:snap-to-guides="false">
    <inkscape:grid
       type="xygrid"
       id="grid4772"
       empspacing="2"
       visible="true"
       enabled="true"
       snapvisiblegridlinesonly="true"
       color="#ff00ff"
       opacity="0.1254902"
       empcolor="#ff00ff"
       empopacity="0.25098039" />
    <sodipodi:guide
       orientation="0,1"
       position="2,12"
       id="guide4789" />
    <sodipodi:guide
       orientation="1,0"
       position="12,10"
       id="guide4791" />
    <sodipodi:guide
       orientation="0,1"
       position="10,0"
       id="guide4793" />
    <sodipodi:guide
       orientation="1,0"
       position="0,9"
       id="guide4795" />
    <sodipodi:guide
       orientation="0,1"
       position="5,11"
       id="guide4797" />
    <sodipodi:guide
       orientation="1,0"
       position="11,7"
       id="guide4799" />
    <sodipodi:guide
       orientation="0,1"
       position="9,2"
       id="guide4801" />
    <sodipodi:guide
       orientation="1,0"
       position="2,5"
       id="guide4803" />
  </sodipodi:namedview>
  <metadata
     id="metadata4769">
    <rdf:RDF>
      <cc:Work
         rdf:about="">
        <dc:format>image/svg+xml</dc:format>
        <dc:type
           rdf:resource="http://purl.org/dc/dcmitype/StillImage" />
        <dc:title />
      </cc:Work>
    </rdf:RDF>
  </metadata>
  <g
     inkscape:label="Layer 1"
     inkscape:groupmode="layer"
     id="layer1"
     transform="translate(0,-1040.3622)">
    <path
       id="path4073"
       transform="translate(0,1040.3622)"
       d="M 9 1 C 8.446 1 8 1.446 8 2 C 8 2.554 8.446 3 9 3 C 9.554 3 10 2.554 10 2 C 10 1.446 9.554 1 9 1 z M 5 2 C 4.4460001 2 4 2.4459 4 3 C 4 3.5539 4.4460001 4 5 4 C 5.5539999 4 6 3.5539 6 3 C 6 2.4459 5.5539999 2 5 2 z M 8 4 L 7.53125 6.875 L 5.40625 7.125 L 5 5 L 4 5 L 3.03125 7.375 L 2 7.5 L 2 9 C 3.4165396 8.8426224 4.8334604 8.6886511 6.25 8.53125 L 5 11 L 8 11 L 6.75 8.46875 C 8.1665396 8.3113489 9.5834604 8.1573776 11 8 L 11 6.5 L 9.90625 6.625 L 9 4 L 8 4 z "
       style="color:#000000;fill:none;fill-opacity:1;fill-rule:nonzero;stroke:#ffffff;stroke-width:2;marker:none;visibility:visible;display:inline;overflow:visible;enable-background:accumulate;opacity:0.3" />
    <path
       style="color:#000000;fill:#444444;fill-opacity:1;fill-rule:nonzero;stroke:none;stroke-width:2;marker:none;visibility:visible;display:inline;overflow:visible;enable-background:accumulate"
       d="M 8,1 C 7.446,1 7,1.446 7,2 7,2.554 7.446,3 8,3 8.554,3 9,2.554 9,2 9,1.446 8.554,1 8,1 z M 5,2 C 4.4460001,2 4,2.4459 4,3 4,3.5539 4.4460001,4 5,4 5.5539999,4 6,3.5539 6,3 6,2.4459 5.5539999,2 5,2 z M 8,4 7.53125,6.875 5.40625,7.125 5,5 4,5 3.03125,7.375 2,7.5 2,9 C 3.4165396,8.8426224 4.8334604,8.6886511 6.25,8.53125 L 5,11 8,11 6.75,8.46875 C 8.1665396,8.3113489 9.5834604,8.1573776 11,8 L 11,6.5 9.90625,6.625 9,4 z"
       transform="translate(0,1040.3622)"
       id="path4129"
       inkscape:connector-curvature="0"
       sodipodi:nodetypes="ssssssssssccccccccccccccccc" />
  </g>
</svg>

<svg xmlns="http://www.w3.org/2000/svg" viewBox="0 0 12 12"><g color="#000"><path d="m9 1c-.554 0-1 .446-1 1 0 .554.446 1 1 1 .554 0 1-.446 1-1 0-.554-.446-1-1-1zm-4 1c-.554 0-1 .446-1 1 0 .554.446 1 1 1 .554 0 1-.446 1-1 0-.554-.446-1-1-1zm3 2l-.469 2.875-2.125.25-.406-2.125h-1l-.969 2.375-1.031.125v1.5c1.417-.157 2.833-.311 4.25-.469l-1.25 2.469h3l-1.25-2.531c1.417-.157 2.833-.311 4.25-.469v-1.5l-1.094.125-.906-2.625h-1z" opacity=".3" fill="none" stroke="#fff" stroke-width="2"/><path d="m8 1c-.554 0-1 .446-1 1 0 .554.446 1 1 1 .554 0 1-.446 1-1 0-.554-.446-1-1-1m-3 1c-.554 0-1 .446-1 1 0 .554.446 1 1 1 .554 0 1-.446 1-1 0-.554-.446-1-1-1m3 2l-.469 2.875-2.125.25-.406-2.125h-1l-.969 2.375-1.031.125v1.5c1.417-.157 2.833-.311 4.25-.469l-1.25 2.469h3l-1.25-2.531c1.417-.157 2.833-.311 4.25-.469v-1.5l-1.094.125-.906-2.625z" fill="#444"/></g></svg>
